X:1
T:Karwochenlied
A:Oberoesterreich
B:"Volkslied u. Volksmusik in O.Oe., Heft 21, 29 Fasten-, Passions- u. Osterlieder", Zusammenstellung: A. Bloechl, Herausgeber: Oberoesterreichisches Volksliedwerk, Linz 1996
N:eingerichtet von S.Wascher
Z:abc transcription Simon Wascher
F:http://simonwascher.info/
M:6/4
L:1/4
K:Gm
G |\
B2A GFB/c/ | d2c/A/ B2G | B2A GFB/c/ | d2c/A/ B2 ||
d |\
ccd BGA | BGF G2d | ccd BGA | BGF G2 |]
